assets/icons/CSS.svg

<svg width="32" height="32" viewBox="0 0 32 32" fill="none" xmlns="http://www.w3.org/2000/svg">
<path d="M5.43317 4L7.3566 25.5936L15.9873 28L24.6421 25.5848L26.567 4H5.43317ZM22.5712 8.94718L21.9309 16.1407L21.9328 16.1795L21.9301 16.2689V16.2681L21.4752 21.2979L21.4251 21.7448L16.0001 23.2453L15.9959 23.2491L10.5802 21.7402L10.2135 17.5817H12.8692L13.0577 19.6962L16.0009 20.4939L16.0001 20.4954V20.4951L18.9542 19.6861L19.2664 16.2427H13.0909L13.038 15.6606L12.9173 14.2968L12.8539 13.5646H19.5011L19.7429 10.8865H9.61862L9.56564 10.3048L9.44512 8.94068L9.38161 8.20841H22.6345L22.5712 8.94718Z" fill="#3996DB"/>
</svg>

<svg xmlns="http://www.w3.org/2000/svg" width="32" height="32" fill="none"><path fill="#3996DB" d="m5.433 4 1.924 21.594L15.987 28l8.655-2.415L26.567 4zm17.138 4.947-.64 7.194.002.039-.003.089-.455 5.029-.05.447-5.425 1.5-.004.004-5.416-1.509-.367-4.158h2.656l.189 2.114 2.943.798v.001l2.953-.809.312-3.443h-6.175l-.053-.582-.12-1.364-.064-.732H19.5l.242-2.678H9.619l-.053-.582-.12-1.364-.064-.733h13.253z"/></svg>
